X:1
T:The Face I Love
T:The Face I Love
T:Marcos Valle
T:Ray Gilbert
C:Marcos Valle
Z:All Rights Reserved
L:1/4
M:3/4
K:G
V:1 treble 
%%MIDI program 0
V:1
 z2 D |:"Gmaj7" B2 F |"G69" E2 D- | D"Gmaj9" B F |"G69" E2 D |"Gm9" _B2 =F |"C7" E2 D- | %7
w: Just|think of|things like|* daf- fo-|dils, and|peace- ful|sheep on|
w: |think of|things like|* far off|isles, two|blue green|eyes and|
"Gm9" D _B =F |"C7" E2 C |"Fmaj7" A2 E |"F69" D2 C- | C"Fmaj7" A E |"F6" D2 C |"Fm7" _A _A _A | %14
w: * clo- vered|hills the|morn- ing|song of|* whip- poor-|wills and|you'll see the|
w: * sun- lit|smiles, and|in your|hand a|* wish- ing|star the|one you thought|
"Bb7" _B _A _B |"Em7" G3- |"A7b9" G A G |1"Fmaj7" E3/2 C/ C |"F6" C A G |"Em" E3/2 C/ C |"Am7" C3 | %21
w: face that I|love.|* Think of|an- y old|sky get- ting|rea- dy to|cry.|
w: too far a-|bove.|* Ev'- ry|||||
 E C E |"D9" D E F |"Am7" G F G |"D7b9" ^G A D :|2"Fmaj7" E3/2 C/ C ||"F6" C A G |"Em" E3/2 C/ C | %28
w: Down comes the|rain but it's|rain- ing con-|fet- ti. Then|love- ly view|* in- tro-|duc- es you|
w: |||||||
"Am7" C3 |"Fmaj7" E2"Dm7" G |"G13" A2"G+7" ^D |"Cmaj9" =D3- |"F13" D3- |"Cmaj9" D3 |] %34
w: to|to the|face I|love.|||
w: ||||||

